X:13
T:Fair Jenny's Jig
S:Bernie Waugh
R:Jig
M:6/8
L:1/8
K:D
B|:\
"D"~f3 fgf|"A"ecA ecA|"Em"Bcd "F#m"ecA|"G"Bcd "A"efg|
"D"~f3 fgf|"A"ecA ecA|"Em"Bcd "A"ecA|ABc "D"d2A:|
|:\
"G"~B3 B=cB|GBB B=cB|"D"ADD dDD|"F#m"cDD ADD|
"G"~B3 B=cB|"Em"GBB B=cB|"A"AEA ABc|"D"dAF D2A:|

